svgs/sharp-solid/command.svg

<svg xmlns="http://www.w3.org/2000/svg" viewBox="0 0 512 512"><!--! Font Awesome Pro 6.6.0 by @fontawesome - https://fontawesome.com License - https://fontawesome.com/license (Commercial License) Copyright 2024 Fonticons, Inc. --><path d="M0 0L32 0 160 0l32 0 0 32 0 96 128 0 0-96 0-32 32 0L480 0l32 0 0 32 0 128 0 32-32 0-96 0 0 128 96 0 32 0 0 32 0 128 0 32-32 0-128 0-32 0 0-32 0-96-128 0 0 96 0 32-32 0L32 512 0 512l0-32L0 352l0-32 32 0 96 0 0-128-96 0L0 192l0-32L0 32 0 0zM128 128l0-64L64 64l0 64 64 0zm64 192l128 0 0-128-128 0 0 128zm-64 64l-64 0 0 64 64 0 0-64zm256 0l0 64 64 0 0-64-64 0zm0-256l64 0 0-64-64 0 0 64z"/></svg>

<svg xmlns="http://www.w3.org/2000/svg" viewBox="0 0 512 512"><!--! Font Awesome Pro 6.4.2 by @fontawesome - https://fontawesome.com License - https://fontawesome.com/license (Commercial License) Copyright 2023 Fonticons, Inc. --><path d="M0 0H32 160h32V32v96H320V32 0h32H480h32V32 160v32H480 384V320h96 32v32V480v32H480 352 320V480 384H192v96 32H160 32 0V480 352 320H32h96V192H32 0V160 32 0zM128 128V64H64v64h64zm64 192H320V192H192V320zm-64 64H64v64h64V384zm256 0v64h64V384H384zm0-256h64V64H384v64z"/></svg>
